public/svgs/trash.svg

<svg width="32" height="32" viewBox="0 0 32 32" fill="none" xmlns="http://www.w3.org/2000/svg">
<circle opacity="0.5" cx="16" cy="16" r="16" fill="#121212"/>
<path d="M24 10H8" stroke="#F2F2F2" stroke-linecap="round" stroke-linejoin="round"/>
<path d="M20 10V8.5C20 8.10218 19.8314 7.72064 19.5314 7.43934C19.2313 7.15804 18.8243 7 18.4 7H13.6C13.1757 7 12.7687 7.15804 12.4686 7.43934C12.1686 7.72064 12 8.10218 12 8.5V10" stroke="#F2F2F2" stroke-linecap="round" stroke-linejoin="round"/>
<path fill-rule="evenodd" clip-rule="evenodd" d="M23 24.25V10L9 10V24.25C9 24.4489 9.08194 24.6397 9.22781 24.7803C9.37367 24.921 9.5715 25 9.77778 25H22.2222C22.4285 25 22.6263 24.921 22.7722 24.7803C22.9181 24.6397 23 24.4489 23 24.25ZM12.5 13C12.5 12.7239 12.2761 12.5 12 12.5C11.7239 12.5 11.5 12.7239 11.5 13V22C11.5 22.2761 11.7239 22.5 12 22.5C12.2761 22.5 12.5 22.2761 12.5 22V13ZM16 12.5C16.2761 12.5 16.5 12.7239 16.5 13V22C16.5 22.2761 16.2761 22.5 16 22.5C15.7239 22.5 15.5 22.2761 15.5 22V13C15.5 12.7239 15.7239 12.5 16 12.5ZM20.5 13C20.5 12.7239 20.2761 12.5 20 12.5C19.7239 12.5 19.5 12.7239 19.5 13V22C19.5 22.2761 19.7239 22.5 20 22.5C20.2761 22.5 20.5 22.2761 20.5 22V13Z" fill="#F2F2F2"/>
</svg>

<svg width="32" height="32" fill="none" xmlns="http://www.w3.org/2000/svg"><circle opacity=".5" cx="16" cy="16" r="16" fill="#121212"/><path d="M24 10H8M20 10V8.5c0-.398-.169-.78-.469-1.06-.3-.282-.707-.44-1.131-.44h-4.8c-.424 0-.831.158-1.131.44-.3.28-.469.662-.469 1.06V10" stroke="#F2F2F2" stroke-linecap="round" stroke-linejoin="round"/><path fill-rule="evenodd" clip-rule="evenodd" d="M23 24.25V10H9v14.25c0 .199.082.39.228.53.146.141.344.22.55.22h12.444a.793.793 0 0 0 .55-.22.736.736 0 0 0 .228-.53ZM12.5 13a.5.5 0 0 0-1 0v9a.5.5 0 0 0 1 0v-9Zm3.5-.5a.5.5 0 0 1 .5.5v9a.5.5 0 0 1-1 0v-9a.5.5 0 0 1 .5-.5Zm4.5.5a.5.5 0 0 0-1 0v9a.5.5 0 0 0 1 0v-9Z" fill="#F2F2F2"/></svg>
